src/svg/h-sigh.svg

<svg height="1000" width="857.143" xmlns="http://www.w3.org/2000/svg"><path d="M714.24 750.016v-499.968q0 -14.508 -10.602 -25.11t-25.11 -10.602h-71.424q-14.508 0 -25.11 10.602t-10.602 25.11v178.56h-285.696v-178.56q0 -14.508 -10.602 -25.11t-25.11 -10.602h-71.424q-14.508 0 -25.11 10.602t-10.602 25.11v499.968q0 14.508 10.602 25.11t25.11 10.602h71.424q14.508 0 25.11 -10.602t10.602 -25.11v-178.56h285.696v178.56q0 14.508 10.602 25.11t25.11 10.602h71.424q14.508 0 25.11 -10.602t10.602 -25.11zm142.848 -517.824v535.68q0 66.402 -47.151 113.553t-113.553 47.151h-535.68q-66.402 0 -113.553 -47.151t-47.151 -113.553v-535.68q0 -66.402 47.151 -113.553t113.553 -47.151h535.68q66.402 0 113.553 47.151t47.151 113.553z"/></svg>

<svg height="1000" width="857.1" xmlns="http://www.w3.org/2000/svg"><path d="M714.3 750V250q0 -14.5 -10.6 -25.1t-25.1 -10.6h-71.5q-14.5 0 -25.1 10.6T571.4 250v178.6H285.7V250q0 -14.5 -10.6 -25.1T250 214.3h-71.4q-14.5 0 -25.1 10.6T142.9 250v500q0 14.5 10.6 25.1t25.1 10.6H250q14.5 0 25.1 -10.6T285.7 750V571.4h285.7V750q0 14.5 10.6 25.1t25.1 10.6h71.5q14.5 0 25.1 -10.6T714.3 750zM857.1 232.1v535.8q0 66.4 -47.1 113.5t-113.6 47.2H160.7q-66.4 0 -113.5 -47.2T0 767.9V232.1Q0 165.7 47.2 118.6T160.7 71.4h535.7q66.4 0 113.6 47.2t47.1 113.5z"/></svg>
